X: 0001
T: Stor Kersta-visa
%R: vals
B: Paul B\"ackstr\"om's "L\aatar fr\aan Dalarna" collection" 1974
Z: 2022 John Chambers <jc:trillian.mit.edu>
M: 3/4
L: 1/4
K: Dm
% - - - - - - - - - -
D | D F A | G B A | F E C | D2 D | B B G |
w: O-lyck-lig jag f\"od-des i Jol-re ka-pell, av hul-da f\"or-
%
c c A | B> A G | A2 A | d> e d | c> B A |
w: \"ald-rar en kropp och en sj\"al, mot d\"o-den ett m\aal* till
%
B {cB}A G | A2  (F/E/) | D F A | G B A | F {GF}E C | D2  |]
w: v\"arl-den ett prov, samt* l\"am-nad o, ti-digt \aat v\"arl-den ett rov.
% - - - - - - - - - -
%W:2.~Mitt namn h\"ar utspriddes med st\orsta besv\"ar, att Kerstin P\aals\-
%W:dotter p\aa Idre det \"ar, som blivit f\"orr\aadder av
%W:falska f\"rsvar, som med tiden f\aar besinna, att i himlen \"ar far.
% - - - - - - - - - -
%%begintext align
%% Uppt. Stig Bergstr\"om efter Olof Ersson - Bergstr\"om och Evald Person, vilka sjungit melodin.
%% Text: Edvard Bergstr\"om
%%endtext
